public/assets/images/brand/04.svg

<svg width="89" height="28" viewBox="0 0 89 28" fill="none" xmlns="http://www.w3.org/2000/svg">
<g clip-path="url(#clip0_21_40)">
<mask id="mask0_21_40" style="mask-type:luminance" maskUnits="userSpaceOnUse" x="0" y="0" width="89" height="28">
<path d="M89 0.5H0V27.5H89V0.5Z" fill="white"/>
</mask>
<g mask="url(#mask0_21_40)">
<path d="M46.8947 7.28462C46.8947 8.25846 46.0877 9.04308 45.0861 9.04308C44.0845 9.04308 43.2776 8.25846 43.2776 7.28462C43.2776 6.31077 44.0561 5.52615 45.0861 5.52615C46.1162 5.55385 46.8947 6.33846 46.8947 7.28462ZM39.4468 10.8246V11.2585C39.4468 11.2585 38.5876 10.1785 36.7505 10.1785C33.722 10.1785 31.358 12.4215 31.358 15.5277C31.358 18.6108 33.6935 20.8769 36.7505 20.8769C38.6113 20.8769 39.4468 19.7692 39.4468 19.7692V20.2308C39.4468 20.4477 39.6129 20.6092 39.836 20.6092H42.0861V10.4462H39.836C39.6129 10.4462 39.4468 10.6354 39.4468 10.8246ZM39.4468 17.3369C39.0291 17.9323 38.1984 18.4446 37.1968 18.4446C35.4167 18.4446 34.0543 17.3646 34.0543 15.5231C34.0543 13.6862 35.4167 12.6062 37.1968 12.6062C38.1699 12.6062 39.0575 13.1462 39.4468 13.7138V17.3369ZM43.7523 10.4462H46.42V20.6092H43.7523V10.4462ZM83.6121 10.1738C81.7798 10.1738 80.9159 11.2538 80.9159 11.2538V5.55385H78.2481V20.6092H80.4982C80.7213 20.6092 80.8874 20.42 80.8874 20.2308V19.7738C80.8874 19.7738 81.7514 20.8815 83.5837 20.8815C86.6122 20.8815 88.9762 18.6108 88.9762 15.5323C88.9762 12.4446 86.6169 10.1738 83.6121 10.1738ZM83.1707 18.4169C82.1406 18.4169 81.3384 17.9046 80.9206 17.3092V13.6862C81.3384 13.1462 82.226 12.5785 83.1707 12.5785C84.9508 12.5785 86.3131 13.6585 86.3131 15.4954C86.3084 17.3369 84.9508 18.4169 83.1707 18.4169ZM76.8573 14.5815V20.6369H74.1895V14.8769C74.1895 13.2015 73.6341 12.5277 72.1341 12.5277C71.3271 12.5277 70.4964 12.9338 69.9647 13.5292V20.6092H67.297V10.4462H69.4094C69.6325 10.4462 69.7986 10.6354 69.7986 10.8246V11.2585C70.5771 10.4738 71.6072 10.1785 72.6325 10.1785C73.8003 10.1785 74.7734 10.5015 75.5519 11.1523C76.4965 11.9046 76.8573 12.8785 76.8573 14.5815ZM60.8222 10.1738C58.9899 10.1738 58.1259 11.2538 58.1259 11.2538V5.55385H55.4582V20.6092H57.7082C57.9313 20.6092 58.0974 20.42 58.0974 20.2308V19.7738C58.0974 19.7738 58.9614 20.8815 60.7937 20.8815C63.8222 20.8815 66.1862 18.6108 66.1862 15.5323C66.2147 12.4446 63.8507 10.1738 60.8222 10.1738ZM60.376 18.4169C59.3459 18.4169 58.5437 17.9046 58.1259 17.3092V13.6862C58.5437 13.1462 59.4313 12.5785 60.376 12.5785C62.1561 12.5785 63.5184 13.6585 63.5184 15.4954C63.5184 17.3369 62.1561 18.4169 60.376 18.4169ZM53.1464 10.1738C53.9534 10.1738 54.3711 10.3077 54.3711 10.3077V12.7123C54.3711 12.7123 52.1496 11.9831 50.7587 13.5246V20.6323H48.0909V10.4462H50.341C50.5641 10.4462 50.7302 10.6354 50.7302 10.8246V11.2585C51.2286 10.6908 52.3157 10.1738 53.1464 10.1738ZM25.4339 19.6908C25.2962 19.3677 25.1538 19.0169 25.0162 18.7169C24.7931 18.2323 24.57 17.7708 24.3753 17.3369L24.3468 17.3092C22.4291 13.2569 20.3737 9.14923 18.2043 5.09231L18.1189 4.93077C17.891 4.51077 17.6679 4.08615 17.4543 3.66154C17.1742 3.17692 16.8989 2.66 16.4527 2.17538C15.5698 1.09538 14.2881 0.5 12.9258 0.5C11.5349 0.5 10.2865 1.09538 9.37031 2.12C8.95258 2.60462 8.64878 3.12154 8.36871 3.60615C8.15035 4.03077 7.932 4.45538 7.70414 4.87538L7.6187 5.03692C5.47784 9.08923 3.39394 13.1969 1.47619 17.2538L1.4477 17.3092C1.25308 17.7431 1.02997 18.2 0.806869 18.6892C0.669209 18.9846 0.531548 19.3123 0.38914 19.6631C0.0283745 20.6646 -0.0855516 21.6108 0.056856 22.5846C0.360659 24.6108 1.75151 26.3138 3.66926 27.0708C4.39079 27.3662 5.14081 27.5046 5.9193 27.5046C6.14241 27.5046 6.41773 27.4769 6.64083 27.4492C7.55699 27.3431 8.50163 27.0431 9.42253 26.5308C10.5618 25.9077 11.6441 25.0169 12.8688 23.72C14.0935 25.0169 15.2043 25.9077 16.3151 26.5308C17.2312 27.0431 18.1758 27.3431 19.0968 27.4492C19.3199 27.4769 19.5999 27.5046 19.8183 27.5046C20.5968 27.5046 21.3753 27.3708 22.0683 27.0708C24.0146 26.3138 25.3769 24.5831 25.6807 22.5846C25.9086 21.6338 25.7947 20.6877 25.4339 19.6908ZM12.8973 21.0938C11.3972 19.2569 10.4241 17.5262 10.0918 16.0677C9.95418 15.4446 9.9257 14.9046 10.0064 14.42C10.0634 13.9862 10.2295 13.6077 10.4526 13.2846C10.9795 12.5554 11.8719 12.0938 12.8973 12.0938C13.9274 12.0938 14.8435 12.5277 15.3419 13.2846C15.565 13.6077 15.7312 13.9862 15.7881 14.42C15.8736 14.9046 15.8451 15.4723 15.7027 16.0677C15.3752 17.4985 14.402 19.2292 12.8973 21.0938ZM23.9908 22.3631C23.7962 23.7662 22.8231 24.9846 21.4607 25.5246C20.7914 25.7923 20.0699 25.8754 19.3483 25.7923C18.6553 25.7092 17.9575 25.4969 17.236 25.0908C16.2344 24.5508 15.2328 23.7108 14.065 22.4692C15.8973 20.2815 17.0129 18.2785 17.4306 16.4969C17.6252 15.6569 17.6537 14.9 17.5682 14.1985C17.4591 13.5246 17.2075 12.9015 16.8182 12.3615C15.9543 11.1431 14.5112 10.4415 12.8973 10.4415C11.2833 10.4415 9.84026 11.1708 8.97632 12.3615C8.58707 12.9015 8.33548 13.5246 8.22631 14.1985C8.11713 14.9 8.14086 15.6846 8.36397 16.4969C8.78169 18.2785 9.92096 20.3092 11.7248 22.4969C10.5855 23.7385 9.55544 24.5785 8.55384 25.1185C7.83231 25.5246 7.13451 25.7415 6.44146 25.82C5.69145 25.9031 4.96992 25.7923 4.32908 25.5523C2.96672 25.0123 1.9936 23.7938 1.79898 22.3908C1.71353 21.7169 1.77049 21.0385 2.05056 20.2815C2.13126 20.0092 2.27367 19.7415 2.41133 19.4185C2.60595 18.9846 2.82906 18.5277 3.05216 18.0662L3.08064 18.0108C4.9984 13.9815 7.05382 9.87385 9.19468 5.87692L9.28012 5.71538C9.50323 5.30923 9.72633 4.88 9.94944 4.47385C10.1725 4.04 10.4241 3.63385 10.7279 3.28308C11.3118 2.63692 12.0903 2.28154 12.9495 2.28154C13.8134 2.28154 14.5872 2.63231 15.171 3.28308C15.4749 3.63385 15.7264 4.04 15.9495 4.47385C16.1726 4.88 16.3958 5.31385 16.6189 5.71538L16.7043 5.87692C18.8119 9.89231 20.8436 13.9492 22.7899 18.0385V18.0662C23.013 18.5 23.2076 18.9846 23.4307 19.4185C23.5683 19.7415 23.7108 20.0138 23.7915 20.2815C24.0193 20.9877 24.1 21.6615 23.9908 22.3631Z" fill="#050D20"/>
</g>
</g>
<defs>
<clipPath id="clip0_21_40">
<rect width="89" height="27" fill="white" transform="translate(0 0.5)"/>
</clipPath>
</defs>
</svg>

<svg xmlns="http://www.w3.org/2000/svg" width="89" height="28" fill="none" viewBox="0 0 89 28"><g clip-path="url(#a)"><mask id="b" width="89" height="28" x="0" y="0" maskUnits="userSpaceOnUse" style="mask-type:luminance"><path fill="#fff" d="M89 .5H0v27h89z"/></mask><g mask="url(#b)"><path fill="#050d20" d="M46.895 7.285c0 .973-.807 1.758-1.809 1.758s-1.808-.785-1.808-1.758c0-.974.778-1.759 1.808-1.759 1.03.028 1.809.812 1.809 1.759m-7.448 3.54v.434s-.86-1.08-2.697-1.08c-3.028 0-5.392 2.242-5.392 5.349 0 3.083 2.335 5.349 5.393 5.349 1.86 0 2.696-1.108 2.696-1.108v.462c0 .217.166.378.389.378h2.25V10.446h-2.25c-.223 0-.39.19-.39.379m0 6.512c-.418.595-1.249 1.108-2.25 1.108-1.78 0-3.143-1.08-3.143-2.922 0-1.837 1.363-2.917 3.143-2.917.973 0 1.86.54 2.25 1.108zm4.305-6.89h2.668v10.162h-2.668zm39.86-.273c-1.832 0-2.696 1.08-2.696 1.08v-5.7h-2.668v15.055h2.25c.223 0 .39-.189.39-.378v-.457s.863 1.107 2.696 1.107c3.028 0 5.392-2.27 5.392-5.349 0-3.087-2.36-5.358-5.364-5.358m-.441 8.243c-1.03 0-1.833-.512-2.25-1.108v-3.623c.417-.54 1.305-1.107 2.25-1.107 1.78 0 3.142 1.08 3.142 2.916-.005 1.842-1.362 2.922-3.142 2.922m-6.314-3.836v6.056H74.19v-5.76c0-1.676-.555-2.35-2.055-2.35-.807 0-1.638.407-2.17 1.002v7.08h-2.667V10.446h2.112c.223 0 .39.19.39.379v.434c.778-.785 1.808-1.08 2.833-1.08q1.752-.002 2.92.973c.944.753 1.305 1.727 1.305 3.43m-16.035-4.407c-1.832 0-2.696 1.08-2.696 1.08v-5.7h-2.668V20.61h2.25c.223 0 .39-.189.39-.378v-.457s.863 1.107 2.696 1.107c3.028 0 5.392-2.27 5.392-5.349.029-3.087-2.335-5.358-5.364-5.358m-.446 8.243c-1.03 0-1.832-.512-2.25-1.108v-3.623c.418-.54 1.305-1.107 2.25-1.107 1.78 0 3.142 1.08 3.142 2.916 0 1.842-1.362 2.922-3.142 2.922m-7.23-8.243c.807 0 1.225.134 1.225.134v2.404s-2.221-.729-3.612.813v7.107h-2.67V10.446h2.25c.223 0 .39.19.39.379v.434c.498-.568 1.585-1.085 2.415-1.085M25.434 19.69c-.138-.323-.28-.674-.418-.974-.223-.485-.446-.946-.64-1.38l-.03-.028a280 280 0 0 0-6.142-12.217l-.085-.161q-.343-.631-.665-1.27c-.28-.484-.555-1.001-1.001-1.486A4.52 4.52 0 0 0 12.926.5c-1.391 0-2.64.595-3.556 1.62-.417.485-.721 1.002-1.001 1.486-.219.425-.437.85-.665 1.27l-.085.16c-2.141 4.053-4.225 8.16-6.143 12.218l-.028.055c-.195.434-.418.891-.641 1.38q-.205.446-.418.974c-.36 1.002-.475 1.948-.332 2.922.304 2.026 1.695 3.729 3.612 4.486a5.9 5.9 0 0 0 2.25.434c.223 0 .499-.028.722-.056a7.5 7.5 0 0 0 2.782-.918c1.139-.623 2.221-1.514 3.446-2.811 1.225 1.297 2.335 2.188 3.446 2.81.916.513 1.86.813 2.782.92.223.027.503.055.721.055.779 0 1.557-.134 2.25-.434a5.76 5.76 0 0 0 3.613-4.486c.228-.951.114-1.897-.247-2.894m-12.537 1.403c-1.5-1.837-2.473-3.568-2.805-5.026-.138-.623-.166-1.163-.086-1.648.057-.434.223-.812.447-1.135.527-.73 1.419-1.191 2.444-1.191 1.03 0 1.947.434 2.445 1.19.223.324.39.702.446 1.136.086.485.057 1.052-.085 1.648-.328 1.43-1.301 3.161-2.806 5.026m11.094 1.27c-.195 1.402-1.168 2.62-2.53 3.16a4.3 4.3 0 0 1-2.113.268 5.6 5.6 0 0 1-2.112-.701c-1.002-.54-2.003-1.38-3.171-2.622 1.832-2.187 2.948-4.19 3.366-5.972.194-.84.223-1.597.137-2.299a4.3 4.3 0 0 0-.75-1.837c-.864-1.218-2.307-1.92-3.92-1.92-1.615 0-3.058.73-3.922 1.92a4.3 4.3 0 0 0-.75 1.837 5.5 5.5 0 0 0 .138 2.299c.418 1.782 1.557 3.812 3.36 6-1.139 1.241-2.169 2.081-3.17 2.622a5.5 5.5 0 0 1-2.113.701 4.6 4.6 0 0 1-2.112-.268c-1.362-.54-2.335-1.758-2.53-3.161a4.3 4.3 0 0 1 .252-2.11c.08-.272.223-.54.36-.862.195-.434.418-.891.641-1.353l.029-.055A288 288 0 0 1 9.195 5.877l.085-.162c.223-.406.446-.835.67-1.241.223-.434.474-.84.778-1.19a2.95 2.95 0 0 1 2.222-1.002c.863 0 1.637.35 2.221 1.001.304.35.555.757.779 1.19.223.407.446.84.669 1.242l.085.162a348 348 0 0 1 6.086 12.162v.027c.223.434.418.919.64 1.353.138.322.28.595.361.863.228.706.309 1.38.2 2.081"/></g></g><defs><clipPath id="a"><path fill="#fff" d="M0 .5h89v27H0z"/></clipPath></defs></svg>
